assets/img/braze_icons/hourglass-02.svg

<svg fill="none" height="24" viewBox="0 0 24 24" width="24" xmlns="http://www.w3.org/2000/svg"><path clip-rule="evenodd" d="m15.4142 12 1.3495-1.3495c2.0722-2.07217 3.2363-4.8826 3.2363-7.81306 0-1.01479-.8227-1.83744-1.8374-1.83744h-12.32516c-1.01479 0-1.83744.82265-1.83744 1.83744 0 2.93046 1.16412 5.74089 3.23627 7.81306l1.34952 1.3495-1.34952 1.3495c-2.07215 2.0722-3.23627 4.8826-3.23627 7.8131 0 1.0147.82265 1.8374 1.83744 1.8374h12.32516c1.0147 0 1.8374-.8227 1.8374-1.8374 0-2.9305-1.1641-5.7409-3.2363-7.8131zm-2.4142-1.001c.1756.0001.2635.0001.3534-.0164.1341-.0247.2739-.0825.3862-.1599.0753-.0518.137-.1135.2604-.2369l1.3495-1.34953c1.2713-1.27128 2.1253-2.88187 2.4738-4.6189.0919-.45805.1378-.68708.0491-.94391-.0698-.20192-.2549-.42783-.4391-.53594-.2344-.13752-.5108-.13752-1.0637-.13752h-8.73917c-.5529 0-.82935 0-1.06371.13752-.18425.10811-.36934.33402-.4391.53594-.08873.25683-.04278.48586.04912.94391.34849 1.73703 1.20246 3.34762 2.47374 4.6189l1.34952 1.34953c.122.122.183.183.2572.2344.1134.0785.2542.1368.3898.1616.0887.0161.1756.0162.3492.0162z" fill="#801ed7" fill-rule="evenodd"/></svg>

<svg width="24" height="24" viewBox="0 0 24 24" fill="none" xmlns="http://www.w3.org/2000/svg">
<path fill-rule="evenodd" clip-rule="evenodd" d="M15.4142 12L16.7637 10.6505C18.8359 8.57833 20 5.7679 20 2.83744C20 1.82265 19.1773 1 18.1626 1H5.83744C4.82265 1 4 1.82265 4 2.83744C4 5.7679 5.16412 8.57833 7.23627 10.6505L8.58579 12L7.23627 13.3495C5.16412 15.4217 4 18.2321 4 21.1626C4 22.1773 4.82265 23 5.83744 23H18.1626C19.1773 23 20 22.1773 20 21.1626C20 18.2321 18.8359 15.4217 16.7637 13.3495L15.4142 12ZM13 10.999C13.1756 10.9991 13.2635 10.9991 13.3534 10.9826C13.4875 10.9579 13.6273 10.9001 13.7396 10.8227C13.8149 10.7709 13.8766 10.7092 14 10.5858L15.3495 9.23627C16.6208 7.96499 17.4748 6.3544 17.8233 4.61737C17.9152 4.15932 17.9611 3.93029 17.8724 3.67346C17.8026 3.47154 17.6175 3.24563 17.4333 3.13752C17.1989 3 16.9225 3 16.3696 3H7.63043C7.07753 3 6.80108 3 6.56672 3.13752C6.38247 3.24563 6.19738 3.47154 6.12762 3.67346C6.03889 3.93029 6.08484 4.15932 6.17674 4.61737C6.52523 6.3544 7.3792 7.96499 8.65048 9.23627L10 10.5858C10.122 10.7078 10.183 10.7688 10.2572 10.8202C10.3706 10.8987 10.5114 10.957 10.647 10.9818C10.7357 10.9979 10.8226 10.998 10.9962 10.998L13 10.999Z" fill="#801ED7"/>
</svg>
